icon-themes/breeze_svg/cmd/lc_decrementlevel.svg

<svg viewBox="0 0 24 24" xmlns="http://www.w3.org/2000/svg"><path d="m4 4v1h16v-1zm0 2v1h13v-1zm6 4v1h10v-1zm0 2v1h2v-1zm6 0v1h4v-1zm-12 4v1h16v-1h-11zm0 2v1h13v-1zm14 1v1h2v-1z" fill="#4d4d4d"/><path d="m4 9v6l4-3z" fill="#1d99f3"/></svg>

<svg xmlns="http://www.w3.org/2000/svg" viewBox="0 0 24 24">
 <path 
     style="fill:#4d4d4d" 
     d="M 4 4 L 4 5 L 20 5 L 20 4 L 4 4 z M 4 6 L 4 7 L 17 7 L 17 6 L 4 6 z M 10 10 L 10 11 L 20 11 L 20 10 L 10 10 z M 10 12 L 10 13 L 12 13 L 12 12 L 10 12 z M 16 12 L 16 13 L 20 13 L 20 12 L 16 12 z M 4 16 L 4 17 L 20 17 L 20 16 L 9 16 L 4 16 z M 4 18 L 4 19 L 17 19 L 17 18 L 4 18 z M 18 19 L 18 20 L 20 20 L 20 19 L 18 19 z "
     />
 <path 
     style="fill:#1d99f3" 
     d="M 4 9 L 4 15 L 8 12 L 4 9 z "
     />
 </svg>
